X: 29
T: Cherish the ladies
C: anon.
O: Ireland
B: Francis O'Neill: "The Dance Music of Ireland" (1907) no. 29
R: Double jig
Z: Transcribed by Frank Nordberg - http://www.musicaviva.com
F: http://www.musicaviva.com/abc/tunes/ireland/oneill-1001/oneill-1001-002
9.abc
M: 6/8
L: 1/8
Q: 3/8=128
K: D
(3A/B/c/W|dFF AFF|DFA AGF|BEE GEE|GBA GFE|dFF AFF|\
DFA AFA|Bcd efg|fdd d2 H :|(3A/B/c/|dfd cec|
dfd AGF|BEE GEE|GBA GFE|dfd cec|dfd AGF|Bcd efg|\
fdd d2:|A|dfd cec|dfd AGF|B z E G z E|
(GBA) GFE|dGd cFc|dGd A2G|(A>Bc/d/) efg|\
fdd d2:| B|Add fdd|add fdd|(A/B/c)d gfg|ece gfe|
agf bge|afd cBA|(3f/g/a/ B2 AGF|GEF GFE:|f2f afd|\
fed cde|g2g gfg|ece gfe|agf bge|afd cBA|
fdB AGF|GEF GFE:|DFA dAF|DFA BGE|DFA dAF|\
GEF GFE|DFA DGB|DFA d2e|fdB AGF|GEF GFEW :|
W:
W:
W: From Musica Viva - http://www.musicaviva.com
W: the Internet center for free sheet music downloads.


